icons/glyphs/glyph-bluetooth.svg

<?xml version="1.0" encoding="UTF-8" standalone="no"?><svg height="22" viewBox="0 0 5.8208332 5.8208335" width="22" xmlns="http://www.w3.org/2000/svg"><sodipodi:namedview/><metadata><rdf:RDF><cc:Work><dc:format>image/svg+xml</dc:format><dc:type/><dc:title/></cc:Work></rdf:RDF></metadata><path d="m2.7175956.00000056v.46558622 1.97798722l-.8929601-.8929602-.1367597-.1347485-.2720109.2715082.1352512.1367597 1.0850271 1.0850271-1.0850271 1.0850271-.1352512.1372624.2720109.2735193.1367597-.1367596.8929601-.893463v.00201 2.4440763l1.6873729-1.6893861-1.2212838-1.221284 1.2212838-1.2227923zm.3856422.93318363.7567033.75418931-.7567033.7546922zm0 2.44357341.7567033.7546922-.7567033.7541892z" fill="#d0d0d0"/></svg>

<?xml version="1.0" encoding="UTF-8" standalone="no"?>
<!-- Created with Inkscape (http://www.inkscape.org/) -->

<svg
   xmlns:dc="http://purl.org/dc/elements/1.1/"
   xmlns:cc="http://creativecommons.org/ns#"
   xmlns:rdf="http://www.w3.org/1999/02/22-rdf-syntax-ns#"
   xmlns:svg="http://www.w3.org/2000/svg"
   xmlns="http://www.w3.org/2000/svg"
   xmlns:sodipodi="http://sodipodi.sourceforge.net/DTD/sodipodi-0.dtd"
   xmlns:inkscape="http://www.inkscape.org/namespaces/inkscape"
   width="22"
   height="22"
   viewBox="0 0 5.8208332 5.8208335"
   version="1.1"
   id="svg8"
   inkscape:version="0.92+devel 15700 custom"
   sodipodi:docname="glyph-bluetooth.svg">
  <defs
     id="defs2" />
  <sodipodi:namedview
     id="base"
     pagecolor="#002466"
     bordercolor="#ffffff"
     borderopacity="0.29019608"
     inkscape:pageopacity="1"
     inkscape:pageshadow="2"
     inkscape:zoom="26.42008"
     inkscape:cx="14.385504"
     inkscape:cy="9.9543046"
     inkscape:document-units="px"
     inkscape:current-layer="svg8"
     inkscape:document-rotation="0"
     showgrid="false"
     units="px"
     inkscape:showpageshadow="false"
     borderlayer="true"
     inkscape:window-width="1920"
     inkscape:window-height="1054"
     inkscape:window-x="0"
     inkscape:window-y="0"
     inkscape:window-maximized="1" />
  <metadata
     id="metadata5">
    <rdf:RDF>
      <cc:Work
         rdf:about="">
        <dc:format>image/svg+xml</dc:format>
        <dc:type
           rdf:resource="http://purl.org/dc/dcmitype/StillImage" />
        <dc:title></dc:title>
      </cc:Work>
    </rdf:RDF>
  </metadata>
  <path
     style="color:#000000;font-style:normal;font-variant:normal;font-weight:normal;font-stretch:normal;font-size:medium;line-height:normal;font-family:sans-serif;font-variant-ligatures:normal;font-variant-position:normal;font-variant-caps:normal;font-variant-numeric:normal;font-variant-alternates:normal;font-variant-east-asian:normal;font-feature-settings:normal;text-indent:0;text-align:start;text-decoration:none;text-decoration-line:none;text-decoration-style:solid;text-decoration-color:#000000;letter-spacing:normal;word-spacing:normal;text-transform:none;writing-mode:lr-tb;direction:ltr;text-orientation:mixed;dominant-baseline:auto;baseline-shift:baseline;text-anchor:start;white-space:normal;shape-padding:0;clip-rule:nonzero;display:inline;overflow:visible;visibility:visible;opacity:1;isolation:auto;mix-blend-mode:normal;color-interpolation:sRGB;color-interpolation-filters:linearRGB;solid-color:#000000;solid-opacity:1;vector-effect:none;fill:#d0d0d0;fill-opacity:1;fill-rule:nonzero;stroke:none;stroke-width:0.39687499;stroke-linecap:round;stroke-linejoin:miter;stroke-miterlimit:4;stroke-dasharray:none;stroke-dashoffset:0;stroke-opacity:1;color-rendering:auto;image-rendering:auto;shape-rendering:auto;text-rendering:auto;enable-background:accumulate"
     d="M 2.7175956,5.6e-7 V 0.46558678 2.443574 L 1.8246355,1.5506138 1.6878758,1.4158653 1.4158649,1.6873735 1.5511161,1.8241332 2.6361432,2.9091603 1.5511161,3.9941874 1.4158649,4.1314498 1.6878758,4.4049691 1.8246355,4.2682095 2.7175956,3.3747465 v 0.00201 2.4440763 L 4.4049685,4.1314467 3.1836847,2.9101627 4.4049685,1.6873704 Z M 3.1032378,0.93318419 3.8599411,1.6873735 3.1032378,2.4420657 Z m 0,2.44357341 0.7567033,0.7546922 -0.7567033,0.7541892 z"
     id="path4283"
     inkscape:connector-curvature="0"
     inkscape:label="#glyph" />
</svg>
